assets/fc/fc-answers.svg

<svg xmlns="http://www.w3.org/2000/svg" width="100%" height="100%" viewBox="0 0 48 48"><path fill="#42A5F5" d="M36 44H8V8h20l8 8z"/><path fill="#90CAF9" d="M40 40H12V4h20l8 8z"/><path fill="#E1F5FE" d="M38.5 13H31V5.5z"/><path fill="#1976D2" d="M23.4 29.9c0-.2 0-.4.1-.6s.2-.3.3-.5.3-.2.5-.3.4-.1.6-.1.5 0 .7.1.4.2.5.3.2.3.3.5.1.4.1.6 0 .4-.1.6-.2.3-.3.5-.3.2-.5.3-.4.1-.7.1-.5 0-.6-.1-.4-.2-.5-.3-.2-.3-.3-.5-.1-.4-.1-.6zm2.7-3.1h-2.3l-.4-9.8h3l-.3 9.8z"/></svg>

<svg xmlns="http://www.w3.org/2000/svg" width="100%" height="100%" viewBox="0 0 48 48"><path fill="#42A5F5" d="M36 44L8 44 8 8 28 8 36 16z"/><path fill="#90CAF9" d="M40 40L12 40 12 4 32 4 40 12z"/><path fill="#E1F5FE" d="M38.5 13L31 13 31 5.5z"/><path fill="#1976D2" d="M23.4,29.9c0-0.2,0-0.4,0.1-0.6s0.2-0.3,0.3-0.5s0.3-0.2,0.5-0.3s0.4-0.1,0.6-0.1s0.5,0,0.7,0.1 s0.4,0.2,0.5,0.3s0.2,0.3,0.3,0.5s0.1,0.4,0.1,0.6s0,0.4-0.1,0.6s-0.2,0.3-0.3,0.5s-0.3,0.2-0.5,0.3s-0.4,0.1-0.7,0.1 s-0.5,0-0.6-0.1s-0.4-0.2-0.5-0.3s-0.2-0.3-0.3-0.5S23.4,30.1,23.4,29.9z M26.1,26.8h-2.3L23.4,17h3L26.1,26.8z"/></svg>
